!!!OTL: Die Mordeltern Es waren mal zwei Bauerssoehn,
!!!ARE: Europa, Mitteleuropa, Deutschland (BRD), Hessen, Nassau
!!!YOR: 4, S. 310
!!    ????
!!!SCT: Q0085V
!!!YEM: Copyright 1995, estate of Helmut Schaffrath.
**kern
*ICvox
*Ivox
*M3/4
*k[f#]
*G:
{8d
=1
8d
8b
4.b
8b
=2
8b
8a
4.a}
{8a
=3
8g
8b
4.a
8e
=4
8g
8f#
4.f#}
{8d
=5
8e
8d
8B
8d
8d
8g
=6
4g
4r}
{4g
=7
2g
4a
=8
2b
4dd
=9
2.a
=10
2g
8r}
==
!!!AGN: Ballade, Habgier, Mord, Reue, Selbstmord
!!!ONB: ESAC (Essen Associative Code) Database: BALLADE
!!!AMT: simple triple
!!!AIN: vox
!!!EED: Helmut Schaffrath
!!!EEV: 1.0
*-
